sources/design/Outline/റ_small.svg

<svg:svg xmlns:cc="http://creativecommons.org/ns#" xmlns:dc="http://purl.org/dc/elements/1.1/" xmlns:inkscape="http://www.inkscape.org/namespaces/inkscape" xmlns:rdf="http://www.w3.org/1999/02/22-rdf-syntax-ns#" xmlns:sodipodi="http://sodipodi.sourceforge.net/DTD/sodipodi-0.dtd" xmlns:svg="http://www.w3.org/2000/svg" xml:space="preserve" width="1000" height="1000" version="1.1" style="clip-rule:evenodd;fill-rule:evenodd;image-rendering:optimizeQuality;shape-rendering:geometricPrecision;text-rendering:geometricPrecision" viewBox="0 0 1000 1000" id="svg10" sodipodi:docname="റ_small.svg" inkscape:version="1.0.1 (3bc2e813f5, 2020-09-07)"><svg:metadata id="metadata14"><rdf:RDF><cc:Work rdf:about=""><dc:format>image/svg+xml</dc:format><dc:type rdf:resource="http://purl.org/dc/dcmitype/StillImage" /><dc:title /></cc:Work></rdf:RDF></svg:metadata><sodipodi:namedview pagecolor="#ffffff" bordercolor="#666666" borderopacity="1" objecttolerance="10" gridtolerance="10" guidetolerance="10" inkscape:pageopacity="0" inkscape:pageshadow="2" inkscape:window-width="1920" inkscape:window-height="1015" id="namedview12" showgrid="false" inkscape:zoom="0.79682018" inkscape:cx="428.83091" inkscape:cy="1088.6017" inkscape:window-x="1920" inkscape:window-y="0" inkscape:window-maximized="1" inkscape:current-layer="svg10" showguides="true" inkscape:guide-bbox="true" inkscape:document-rotation="0" inkscape:snap-object-midpoints="false" inkscape:snap-page="false" inkscape:pagecheckerboard="0"><sodipodi:guide position="0,1000" orientation="0,1" id="guide16" inkscape:label="" inkscape:locked="true" inkscape:color="rgb(0,0,255)" /><sodipodi:guide position="1763.3122,2036.1693" orientation="1000,0" id="guide18" /><sodipodi:guide position="0,200" orientation="0,1" id="guide20" inkscape:label="base" inkscape:locked="true" inkscape:color="rgb(0,0,255)" /><inkscape:grid type="xygrid" id="grid24" originx="-473.37552" originy="-489.69235" /><sodipodi:guide position="0,0" orientation="0,1" id="guide34" inkscape:label="bottom" inkscape:locked="true" inkscape:color="rgb(0,0,255)" /><sodipodi:guide position="225.05109,1693.3186" orientation="0,1" id="guide44" inkscape:label="" inkscape:locked="false" inkscape:color="rgb(0,0,255)" /><sodipodi:guide position="0,900" orientation="0,1" id="guide46" inkscape:label="" inkscape:locked="true" inkscape:color="rgb(0,0,255)" /><sodipodi:guide position="434.96797,327.38751" orientation="-1,0" id="guide841" inkscape:label="width" inkscape:locked="false" inkscape:color="rgb(0,0,255)" /><sodipodi:guide position="0,1000" orientation="0,1000" id="guide860" /><sodipodi:guide position="1000,1000" orientation="1000,0" id="guide862" /><sodipodi:guide position="1000,0" orientation="0,-1000" id="guide864" /><sodipodi:guide position="0,0" orientation="-1000,0" id="guide866" /></sodipodi:namedview>
 <svg:defs id="defs4"><inkscape:path-effect effect="spiro" id="path-effect858" is_visible="true" lpeversion="1" /><inkscape:path-effect effect="spiro" id="path-effect854" is_visible="true" lpeversion="1" />
  <svg:style type="text/css" id="style2">
   
    .fil0 {fill:#EF7F1A;fill-rule:nonzero}
   
  </svg:style>
 <inkscape:path-effect effect="spiro" id="path-effect1214" is_visible="true" lpeversion="1" /><inkscape:path-effect effect="spiro" id="path-effect1195" is_visible="true" lpeversion="1" /><inkscape:path-effect effect="spiro" id="path-effect992" is_visible="true" lpeversion="1" /><inkscape:path-effect effect="spiro" id="path-effect287" is_visible="true" lpeversion="1" /><inkscape:path-effect effect="spiro" id="path-effect1032" is_visible="true" lpeversion="1" /><inkscape:path-effect effect="spiro" id="path-effect1218" is_visible="true" lpeversion="1" /><inkscape:path-effect effect="spiro" id="path-effect309" is_visible="true" lpeversion="1" /><inkscape:path-effect effect="spiro" id="path-effect1525" is_visible="true" lpeversion="1" /></svg:defs>
 
<svg:g id="path933-8"><svg:path style="color:#000000;clip-rule:nonzero;fill:#1a5fb4;fill-rule:nonzero;stroke-linecap:round;stroke-linejoin:round;-inkscape-stroke:none;paint-order:fill stroke markers;shape-rendering:auto" d="M 199.11523,769.58203 C 174.24723,769.3985200000001 149.63729999999998,773.54763 126.38280999999999,781.1328100000001 C 84.21526599999999,794.8870800000001 43.51023199999999,821.39354 19.609374999999986,863.0488300000001 C 4.5294759999999865,889.33063 -1.9797599000000154,918.50585 -3.0449219000000127,946.7246100000001 C -4.105433900000013,974.82018 0.10942023999998707,1001.7847000000002 6.083984399999988,1027.0918000000001 C 13.586357999999988,1058.8704000000002 22.77373899999999,1086.5338000000002 24.035155999999986,1111.4805000000001 C 24.950713999999987,1129.5872000000002 22.042413999999987,1148.0482000000002 15.603515999999987,1164.9961 A 30.003,30.003 0.0 0,0 48.544921999999985,1205.248 L 176.41016,1184.0898 A 30.003,30.003 0.0 0,0 190.85155999999998,1131.5566 C 169.18452999999997,1113.2894 152.22337999999996,1088.9801 142.55664,1062.3398 C 131.67989,1032.3649 130.56824999999998,998.86442 141.53710999999998,971.6582 C 146.06421999999998,960.42953 152.51122999999998,950.56949 160.22655999999998,943.44922 C 167.81067,936.4500499999999 177.22271999999998,931.8046899999999 185.89452999999997,930.60547 C 192.96504999999996,929.6276899999999 201.13271999999998,930.65887 208.81640999999996,933.61133 C 216.58361999999997,936.59592 224.27817999999996,941.6172799999999 231.13085999999996,948.0976599999999 C 241.78121999999996,958.1693899999999 250.17890999999995,971.5166999999999 255.37304999999995,986.1601599999999 C 260.58897999999994,1000.8650999999999 262.77421999999996,1017.1936 262.10351999999995,1033.6718999999998 C 261.04673999999994,1059.6355999999998 252.72322999999994,1087.4209999999998 243.51171999999994,1117.3534999999997 C 236.95969999999994,1138.6440999999998 230.49573999999993,1159.9609999999998 224.11913999999993,1181.3046999999997 A 30.003,30.003 0.0 0,0 250.87304999999992,1219.8261999999997 L 372.0371099999999,1227.8847999999998 A 30.003,30.003 0.0 0,0 398.1581999999999,1180.1269999999997 C 382.4902799999999,1158.9145999999998 373.93031999999994,1131.7533999999998 374.6035199999999,1105.3905999999997 C 375.0157199999999,1089.2482999999997 378.9961399999999,1071.0482999999997 382.9140599999999,1050.5272999999997 C 390.6191699999999,1010.1701999999998 396.07972999999987,965.8756799999998 386.2421899999999,920.8496099999998 C 376.7740899999999,877.5144999999998 353.1347899999999,837.0071599999998 317.08983999999987,809.0976599999998 C 289.8564499999999,788.0109099999997 257.33490999999987,775.4796799999998 224.02733999999987,771.2421899999998 C 215.72122999999988,770.1854599999998 207.40456999999986,769.6431999999999 199.11522999999988,769.5820299999998 L 199.11523,769.58203 M 198.67383,829.59375 C 204.65215,829.63275 210.59313,830.0179 216.45508,830.76367 C 239.81977,833.7362 262.41979000000003,842.6500000000001 280.35742,856.5390600000001 C 303.98861999999997,874.8366400000001 320.98312999999996,903.2566700000001 327.625,933.65625 C 334.65378,965.82671 331.09201,1002.0169 323.97852,1039.2754 C 322.16135,1048.7932 319.98082,1058.89 318.17578000000003,1069.6172 C 320.13442000000003,1058.797 321.58248000000003,1047.6649 322.05273000000005,1036.1113 C 323.00128000000007,1012.8068000000001 320.01633000000004,988.9236500000001 311.92187000000007,966.10352 C 303.8056200000001,943.22194 290.6339700000001,921.78935 272.3554700000001,904.50391 C 260.5633200000001,893.35242 246.52461000000008,883.82334 230.33789000000007,877.60352 C 214.06764000000007,871.35159 196.02485000000007,868.6344 177.6757800000001,871.17187 C 155.0563700000001,874.2999 135.1651200000001,884.931 119.53516000000009,899.35547 C 104.03641000000009,913.6588399999999 93.17355600000009,931.1538499999999 85.8886720000001,949.22266 C 68.2700250000001,992.92244 70.9532930000001,1040.9146 86.1542970000001,1082.8066000000001 C 92.7261970000001,1100.9180000000001 101.65260000000009,1118.0701000000001 112.5781300000001,1133.8359 L 83.0781250000001,1138.7168000000001 C 84.16144800000009,1128.6831000000002 84.4702140000001,1118.5616000000002 83.9589840000001,1108.4512000000002 C 82.1277800000001,1072.236 71.0470390000001,1041.1296000000002 64.4785160000001,1013.3066000000002 C 59.2639870000001,991.2189100000003 56.135758000000095,969.5557400000002 56.9121090000001,948.9882800000003 C 57.6838110000001,928.5440100000003 62.4966760000001,908.8650300000003 71.6523440000001,892.9082000000003 C 86.1173120000001,867.6981300000003 113.8658300000001,848.3253900000003 144.9882800000001,838.1738300000003 C 162.46838000000008,832.4721400000003 180.7388600000001,829.4768000000003 198.6738300000001,829.5937500000003 L 198.67383,829.59375 M 318.16602,1069.6758 C 316.36048,1080.4168 314.93119,1091.7923 314.62305,1103.8594 C 314.09540999999996,1124.5219 317.22906,1145.0503 323.5918,1164.5293000000001 L 292.5293,1162.4648000000002 C 295.3105,1153.3116000000002 298.04364999999996,1144.1433000000002 300.85742,1135.0000000000002 C 307.11104,1114.6791000000003 313.94369,1092.9738000000002 318.16602,1069.6758000000002 L 318.16602,1069.6758" id="path29551" /></svg:g></svg:svg>

<svg:svg xmlns:cc="http://creativecommons.org/ns#" xmlns:dc="http://purl.org/dc/elements/1.1/" xmlns:inkscape="http://www.inkscape.org/namespaces/inkscape" xmlns:rdf="http://www.w3.org/1999/02/22-rdf-syntax-ns#" xmlns:sodipodi="http://sodipodi.sourceforge.net/DTD/sodipodi-0.dtd" xmlns:svg="http://www.w3.org/2000/svg" xml:space="preserve" width="1000" height="1000" version="1.1" style="clip-rule:evenodd;fill-rule:evenodd;image-rendering:optimizeQuality;shape-rendering:geometricPrecision;text-rendering:geometricPrecision" viewBox="0 0 1000 1000" id="svg10" sodipodi:docname="റ_small.svg" inkscape:version="1.0.1 (3bc2e813f5, 2020-09-07)"><svg:metadata id="metadata14"><rdf:RDF><cc:Work rdf:about=""><dc:format>image/svg+xml</dc:format><dc:type rdf:resource="http://purl.org/dc/dcmitype/StillImage" /><dc:title /></cc:Work></rdf:RDF></svg:metadata><sodipodi:namedview pagecolor="#ffffff" bordercolor="#666666" borderopacity="1" objecttolerance="10" gridtolerance="10" guidetolerance="10" inkscape:pageopacity="0" inkscape:pageshadow="2" inkscape:window-width="1920" inkscape:window-height="1015" id="namedview12" showgrid="false" inkscape:zoom="0.79682018" inkscape:cx="428.83091" inkscape:cy="1088.6017" inkscape:window-x="1920" inkscape:window-y="0" inkscape:window-maximized="1" inkscape:current-layer="svg10" showguides="true" inkscape:guide-bbox="true" inkscape:document-rotation="0" inkscape:snap-object-midpoints="false" inkscape:snap-page="false" inkscape:pagecheckerboard="0"><sodipodi:guide position="0,1000" orientation="0,1" id="guide16" inkscape:label="" inkscape:locked="true" inkscape:color="rgb(0,0,255)" /><sodipodi:guide position="1763.3122,2036.1693" orientation="1000,0" id="guide18" /><sodipodi:guide position="0,200" orientation="0,1" id="guide20" inkscape:label="base" inkscape:locked="true" inkscape:color="rgb(0,0,255)" /><inkscape:grid type="xygrid" id="grid24" originx="-473.37552" originy="-489.69235" /><sodipodi:guide position="0,0" orientation="0,1" id="guide34" inkscape:label="bottom" inkscape:locked="true" inkscape:color="rgb(0,0,255)" /><sodipodi:guide position="225.05109,1693.3186" orientation="0,1" id="guide44" inkscape:label="" inkscape:locked="false" inkscape:color="rgb(0,0,255)" /><sodipodi:guide position="0,900" orientation="0,1" id="guide46" inkscape:label="" inkscape:locked="true" inkscape:color="rgb(0,0,255)" /><sodipodi:guide position="434.96797,327.38751" orientation="-1,0" id="guide841" inkscape:label="width" inkscape:locked="false" inkscape:color="rgb(0,0,255)" /><sodipodi:guide position="0,1000" orientation="0,1000" id="guide860" /><sodipodi:guide position="1000,1000" orientation="1000,0" id="guide862" /><sodipodi:guide position="1000,0" orientation="0,-1000" id="guide864" /><sodipodi:guide position="0,0" orientation="-1000,0" id="guide866" /></sodipodi:namedview>
 <svg:defs id="defs4"><inkscape:path-effect effect="spiro" id="path-effect858" is_visible="true" lpeversion="1" /><inkscape:path-effect effect="spiro" id="path-effect854" is_visible="true" lpeversion="1" />
  <svg:style type="text/css" id="style2">
   
    .fil0 {fill:#EF7F1A;fill-rule:nonzero}
   
  </svg:style>
 <inkscape:path-effect effect="spiro" id="path-effect1214" is_visible="true" lpeversion="1" /><inkscape:path-effect effect="spiro" id="path-effect1195" is_visible="true" lpeversion="1" /><inkscape:path-effect effect="spiro" id="path-effect992" is_visible="true" lpeversion="1" /><inkscape:path-effect effect="spiro" id="path-effect287" is_visible="true" lpeversion="1" /><inkscape:path-effect effect="spiro" id="path-effect1032" is_visible="true" lpeversion="1" /><inkscape:path-effect effect="spiro" id="path-effect1218" is_visible="true" lpeversion="1" /><inkscape:path-effect effect="spiro" id="path-effect309" is_visible="true" lpeversion="1" /><inkscape:path-effect effect="spiro" id="path-effect1525" is_visible="true" lpeversion="1" /></svg:defs>
 
<svg:g id="path933-8"><svg:path style="color:#000000;clip-rule:nonzero;fill:#1a5fb4;fill-rule:nonzero;stroke-linecap:round;stroke-linejoin:round;-inkscape-stroke:none;shape-rendering:auto" d="m 199.11523,769.58203 c -24.868,-0.18351 -49.47793,3.9656 -72.73242,11.55078 -42.167544,13.75427 -82.872578,40.26073 -106.773435,81.91602 -15.079899,26.2818 -21.5891349,55.45702 -22.6542969,83.67578 -1.060512,28.09557 3.15434214,55.06009 9.1289063,80.36719 7.5023736,31.7786 16.6897546,59.442 17.9511716,84.3887 0.915558,18.1067 -1.992742,36.5677 -8.43164,53.5156 a 30.003,30.003 0 0 0 32.941406,40.2519 l 127.865238,-21.1582 a 30.003,30.003 0 0 0 14.4414,-52.5332 c -21.66703,-18.2672 -38.62818,-42.5765 -48.29492,-69.2168 -10.87675,-29.9749 -11.98839,-63.47538 -1.01953,-90.6816 4.52711,-11.22867 10.97412,-21.08871 18.68945,-28.20898 7.58411,-6.99917 16.99616,-11.64453 25.66797,-12.84375 7.07052,-0.97778 15.23819,0.0534 22.92188,3.00586 7.76721,2.98459 15.46177,8.00595 22.31445,14.48633 10.65036,10.07173 19.04805,23.41904 24.24219,38.0625 5.21593,14.70494 7.40117,31.03344 6.73047,47.51174 -1.05678,25.9637 -9.38029,53.7491 -18.5918,83.6816 -6.55202,21.2906 -13.01598,42.6075 -19.39258,63.9512 a 30.003,30.003 0 0 0 26.75391,38.5215 l 121.16406,8.0586 a 30.003,30.003 0 0 0 26.12109,-47.7578 c -15.66792,-21.2124 -24.22788,-48.3736 -23.55468,-74.7364 0.4122,-16.1423 4.39262,-34.3423 8.31054,-54.8633 7.70511,-40.3571 13.16567,-84.65162 3.32813,-129.67769 -9.4681,-43.33511 -33.1074,-83.84245 -69.15235,-111.75195 -27.23339,-21.08675 -59.75493,-33.61798 -93.0625,-37.85547 -8.30611,-1.05673 -16.62277,-1.59899 -24.91211,-1.66016 z m -0.4414,60.01172 c 5.97832,0.039 11.9193,0.42415 17.78125,1.16992 23.36469,2.97253 45.96471,11.88633 63.90234,25.77539 23.6312,18.29758 40.62571,46.71761 47.26758,77.11719 7.02878,32.17046 3.46701,68.36065 -3.64648,105.61915 -1.81717,9.5178 -3.9977,19.6146 -5.80274,30.3418 1.95864,-10.8202 3.4067,-21.9523 3.87695,-33.5059 0.94855,-23.3045 -2.0364,-47.18765 -10.13086,-70.00778 -8.11625,-22.88158 -21.2879,-44.31417 -39.5664,-61.59961 -11.79215,-11.15149 -25.83086,-20.68057 -42.01758,-26.90039 -16.27025,-6.25193 -34.31304,-8.96912 -52.66211,-6.43165 -22.61941,3.12803 -42.51066,13.75913 -58.14062,28.1836 -15.49875,14.30337 -26.361604,31.79838 -33.646488,49.86719 -17.618647,43.69978 -14.935379,91.69194 0.265625,133.58394 6.5719,18.1114 15.498303,35.2635 26.423833,51.0293 l -29.500005,4.8809 c 1.083323,-10.0337 1.392089,-20.1552 0.880859,-30.2656 -1.831204,-36.2152 -12.911945,-67.3216 -19.480468,-95.1446 -5.214529,-22.08769 -8.342758,-43.75086 -7.566407,-64.31832 0.771702,-20.44427 5.584567,-40.12325 14.740235,-56.08008 14.464968,-25.21007 42.213486,-44.58281 73.335936,-54.73437 17.4801,-5.70169 35.75058,-8.69703 53.68555,-8.58008 z m 119.49219,240.08205 c -1.80554,10.741 -3.23483,22.1165 -3.54297,34.1836 -0.52764,20.6625 2.60601,41.1909 8.96875,60.6699 l -31.0625,-2.0645 c 2.7812,-9.1532 5.51435,-18.3215 8.32812,-27.4648 6.25362,-20.3209 13.08627,-42.0262 17.3086,-65.3242 z" id="path29463" /></svg:g></svg:svg>
